client/src/assets/logo/dig-it-logo-full.svg

<svg xmlns="http://www.w3.org/2000/svg" style="isolation:isolate" width="894" height="300"><defs><clipPath id="a"><path d="M0 0h894v300H0z"/></clipPath></defs><g clip-path="url(#a)"><clipPath id="b"><path fill="#FFF" d="M-160-357h1200V643H-160z"/></clipPath><g clip-path="url(#b)"><clipPath id="c"><path d="M-171 682h1200V-318H-171V682z" fill="#FFF"/></clipPath><g clip-path="url(#c)"><path d="M381.03 198.19h11.009c12.279 0 22.006-.766 29.18-2.302 7.173-1.534 13.23-4.155 18.169-7.857 4.939-3.704 8.943-9.294 12.013-16.765 3.068-7.477 4.605-16.283 4.605-26.43 0-12.077-2.521-22.323-7.559-30.733-5.039-8.408-11.479-13.895-19.319-16.465-7.841-2.568-19.904-3.853-36.187-3.853H381.03V198.19zm-21.022 0V93.785h-18.919V76.366h53.853c14.882 0 26.345.768 34.386 2.302 8.041 1.538 15.832 5.004 23.374 10.41 7.54 5.405 13.563 12.831 18.069 22.275 4.505 9.444 6.757 20.203 6.757 32.281 0 13.746-2.17 25.694-6.507 35.836-4.34 10.143-10.027 17.718-17.068 22.725-7.043 5.005-15.416 8.49-25.126 10.459-9.709 1.971-22.071 2.955-37.087 2.955h-50.651V198.19h18.919zM506.957 85.773c0-3.066 1.084-5.739 3.254-8.008 2.168-2.267 4.921-3.404 8.259-3.404 3.135 0 5.838 1.106 8.108 3.305 2.269 2.205 3.404 4.908 3.404 8.107 0 3.204-1.135 5.926-3.404 8.16-2.27 2.236-4.973 3.357-8.108 3.357-3.204 0-5.923-1.136-8.159-3.409-2.237-2.264-3.354-4.967-3.354-8.108zm2.703 112.917v-63.065h-15.016v-16.914h34.036v79.979h15.014v16.918h-49.05V198.69h15.016zM682.237 158.049h60.062v19.02h-60.062v-19.02zM770.027 198.19V93.785H755.01V76.366h51.053v17.419h-15.015V198.19h15.015v17.419H755.01V198.19h15.017zM818.877 135.625v-16.914h12.613v-14.916l19.02-17.42v32.336h17.919v16.914H850.51v47.05c0 7.54.416 12.196 1.251 13.963.834 1.766 2.918 2.654 6.256 2.654 3.536 0 7.007-.665 10.412-2.001v17.315c-4.873 1.738-9.746 2.607-14.616 2.607-5.807 0-10.511-1.289-14.114-3.858-3.605-2.566-5.873-5.788-6.807-9.66-.936-3.869-1.402-10.544-1.402-20.021v-48.049h-12.613zM637.191 118.711v13.811c-4.314-4.395-8.886-7.84-13.72-10.343.211.616.453 1.218.642 1.848 1.974 6.549 2.845 12.875 2.635 18.879.447.39.898.761 1.334 1.177 6.272 6.044 9.41 14.033 9.41 23.976 0 9.808-3.138 17.835-9.41 24.076-6.274 6.24-13.749 9.359-22.423 9.359-8.877 0-16.167-3.104-21.873-9.311-5.706-6.204-8.558-14.212-8.558-24.021 0-7.313 1.638-13.521 4.859-18.662-2.889-3.282-5.496-6.924-7.979-10.41-.701-.984-1.396-1.961-2.086-2.914-.71-.973-1.446-1.99-2.198-3.016-8.507 9.207-12.818 20.985-12.818 35.404 0 14.01 4.37 25.824 13.115 35.432 8.741 9.608 20.051 14.416 33.934 14.416 7.608 0 14.615-1.705 21.021-5.105 6.408-3.405 11.111-7.01 14.115-10.811v8.81c0 6.404-.336 10.96-1.001 13.662-.668 2.702-2.153 5.557-4.455 8.557-2.302 3.008-5.789 5.558-10.46 7.659-4.672 2.101-9.745 3.152-15.216 3.152-9.877 0-19.019-3.267-27.428-9.809l-12.413 13.815c11.212 8.609 23.957 12.916 38.24 12.916 9.473 0 18.049-1.67 25.725-5.008 7.674-3.338 13.431-7.459 17.269-12.363 3.836-4.905 6.256-9.708 7.257-14.416 1.002-4.703 1.502-11.928 1.502-21.674v-72.172h17.417v-16.914h-36.437z" fill="#423D37"/><path d="M556.204 90.778c27.194-8.197 55.887 7.21 64.084 34.4 2.211 7.34 3.093 14.902 2.102 22.031a6.89 6.89 0 0 0 .01 1.217c-1.24.765-2.4 1.648-3.495 2.614-.238-2.488-.286-4.938-.245-7.306.15-8.551-22.522-43.712-59.839-44.707 24.236 4.325 39.689 17.516 46.576 24.785 7.347 7.744 16.768 27.221 1.388 31.854-16.123 4.863-25.113-10.242-33.527-21.838-12.943-17.826-27.961-37.703-43.399-24.606 6.355-8.517 15.393-15.14 26.345-18.444z" fill-rule="evenodd" fill="#87C145"/></g><clipPath id="d"><path d="M-144-351h1200V649H-144V-351z" fill="#FFF"/></clipPath><g fill-rule="evenodd" clip-path="url(#d)"><path d="M181.9 26.225c21.193 6.308 39.606 17.479 54.401 31.924-6.061-12.085-9.066-18.204-4.597-28.862a141.67 141.67 0 0 0-35.069-15.871C125.323-7.809 50.486 29.846 24.265 98.159 50.968 38.993 117.956 7.19 181.9 26.225zM275.483 139.594c1.635 16.521.155 33.63-4.874 50.524-20.758 69.754-94.141 109.472-163.895 88.71a131.836 131.836 0 0 1-33.859-15.546c12.691 9.265 27.147 16.562 43.067 21.305 74.881 22.283 153.653-20.351 175.942-95.232 5.871-19.737 7.232-39.741 4.685-58.913a1574.674 1574.674 0 0 0-21.066 9.152z" fill="#423D37"/><path d="M257.451 85.104c21.684-10.808 39.04-21.4 61.36-23.606-21.718 4.636-42.061 15.09-62.1 26.83l.181.005c-51.728 26.397-76.683 49.885-103.98 99.678-19.067-31.459-68.442-67.526-103.675-78.697 38.344 28.838 82.599 92.253 99.992 139.71 33.847-69.567 53.738-112.348 114.914-158.941 19.345-14.733 52.505 37.119 101.937-35.877-55.227-13.386-55.01-41.944-108.629 30.898z" fill="#87C145"/><path d="M252.48 82.03c2.7-14.54 4.563-28.983 2.645-42.992 3.501 13.844.91 26.531-.874 41.853 32.035-47.862 14.977-41.556-4.979-71.738-25.384 34.876-12.729 31.619 3.208 72.877zM148.77 67.076a117.538 117.538 0 0 0-22.334 30.667c-8.333 16.529-11.039 31.646-12 41.333 7.28 3.383 13.307 7.102 18.271 10.719l.69.507a106.616 106.616 0 0 1 15.373 13.892 94.217 94.217 0 0 1 31.666-24.785 96.315 96.315 0 0 0-7.666-38.666c-7.26-17.054-17.77-28.034-24-33.667z" fill="#87C145"/></g></g></g></svg>

<?xml version="1.0" standalone="no"?><!-- Generator: Gravit.io --><svg xmlns="http://www.w3.org/2000/svg" xmlns:xlink="http://www.w3.org/1999/xlink" style="isolation:isolate" viewBox="0 0 894 300" width="894" height="300"><defs><clipPath id="_clipPath_3GMTOQvhvEuydGeMpKSF5BC7gC6VahJr"><rect width="894" height="300"/></clipPath></defs><g clip-path="url(#_clipPath_3GMTOQvhvEuydGeMpKSF5BC7gC6VahJr)"><clipPath id="_clipPath_sEUDI4J4xGvPbm8wcphrBYM6cHDNSxrT"><rect x="-160" y="-357" width="1200" height="1000" transform="matrix(1,0,0,1,0,0)" fill="rgb(255,255,255)"/></clipPath><g clip-path="url(#_clipPath_sEUDI4J4xGvPbm8wcphrBYM6cHDNSxrT)"><g><clipPath id="_clipPath_zgMO0sPVSKKuS1pIevT2kevC8iOVRcAk"><path d=" M -171 682 L 1029 682 L 1029 -318 L -171 -318 L -171 682 Z " fill="rgb(255,255,255)"/></clipPath><g clip-path="url(#_clipPath_zgMO0sPVSKKuS1pIevT2kevC8iOVRcAk)"><g><path d=" M 381.03 198.19 L 392.039 198.19 C 404.318 198.19 414.045 197.424 421.219 195.888 C 428.392 194.354 434.449 191.733 439.388 188.031 C 444.327 184.327 448.331 178.737 451.401 171.266 C 454.469 163.789 456.006 154.983 456.006 144.836 C 456.006 132.759 453.485 122.513 448.447 114.103 C 443.408 105.695 436.968 100.208 429.128 97.638 C 421.287 95.07 409.224 93.785 392.941 93.785 L 381.03 93.785 L 381.03 198.19 Z  M 360.008 198.19 L 360.008 93.785 L 341.089 93.785 L 341.089 76.366 L 394.942 76.366 C 409.824 76.366 421.287 77.134 429.328 78.668 C 437.369 80.206 445.16 83.672 452.702 89.078 C 460.242 94.483 466.265 101.909 470.771 111.353 C 475.276 120.797 477.528 131.556 477.528 143.634 C 477.528 157.38 475.358 169.328 471.021 179.47 C 466.681 189.613 460.994 197.188 453.953 202.195 C 446.91 207.2 438.537 210.685 428.827 212.654 C 419.118 214.625 406.756 215.609 391.74 215.609 L 341.089 215.609 L 341.089 198.19 L 360.008 198.19 Z " fill="rgb(66,61,55)"/><path d=" M 506.957 85.773 C 506.957 82.707 508.041 80.034 510.211 77.765 C 512.379 75.498 515.132 74.361 518.47 74.361 C 521.605 74.361 524.308 75.467 526.578 77.666 C 528.847 79.871 529.982 82.574 529.982 85.773 C 529.982 88.977 528.847 91.699 526.578 93.933 C 524.308 96.169 521.605 97.29 518.47 97.29 C 515.266 97.29 512.547 96.154 510.311 93.881 C 508.074 91.617 506.957 88.914 506.957 85.773 Z  M 509.66 198.69 L 509.66 135.625 L 494.644 135.625 L 494.644 118.711 L 528.68 118.711 L 528.68 198.69 L 543.694 198.69 L 543.694 215.608 L 494.644 215.608 L 494.644 198.69 L 509.66 198.69 Z " fill="rgb(66,61,55)"/><path d=" M 682.237 158.049 L 742.299 158.049 L 742.299 177.069 L 682.237 177.069 L 682.237 158.049 Z " fill="rgb(66,61,55)"/><path d=" M 770.027 198.19 L 770.027 93.785 L 755.01 93.785 L 755.01 76.366 L 806.063 76.366 L 806.063 93.785 L 791.048 93.785 L 791.048 198.19 L 806.063 198.19 L 806.063 215.609 L 755.01 215.609 L 755.01 198.19 L 770.027 198.19 Z " fill="rgb(66,61,55)"/><path d=" M 818.877 135.625 L 818.877 118.711 L 831.49 118.711 L 831.49 103.795 L 850.51 86.375 L 850.51 118.711 L 868.429 118.711 L 868.429 135.625 L 850.51 135.625 L 850.51 182.675 C 850.51 190.215 850.926 194.871 851.761 196.638 C 852.595 198.404 854.679 199.292 858.017 199.292 C 861.553 199.292 865.024 198.627 868.429 197.291 L 868.429 214.606 C 863.556 216.344 858.683 217.213 853.813 217.213 C 848.006 217.213 843.302 215.924 839.699 213.355 C 836.094 210.789 833.826 207.567 832.892 203.695 C 831.956 199.826 831.49 193.151 831.49 183.674 L 831.49 135.625 L 818.877 135.625 Z " fill="rgb(66,61,55)"/><path d=" M 637.191 118.711 L 637.191 132.522 C 632.877 128.127 628.305 124.682 623.471 122.179 C 623.682 122.795 623.924 123.397 624.113 124.027 C 626.087 130.576 626.958 136.902 626.748 142.906 C 627.195 143.296 627.646 143.667 628.082 144.083 C 634.354 150.127 637.492 158.116 637.492 168.059 C 637.492 177.867 634.354 185.894 628.082 192.135 C 621.808 198.375 614.333 201.494 605.659 201.494 C 596.782 201.494 589.492 198.39 583.786 192.183 C 578.08 185.979 575.228 177.971 575.228 168.162 C 575.228 160.849 576.866 154.641 580.087 149.5 C 577.198 146.218 574.591 142.576 572.108 139.09 C 571.407 138.106 570.712 137.129 570.022 136.176 C 569.312 135.203 568.576 134.186 567.824 133.16 C 559.317 142.367 555.006 154.145 555.006 168.564 C 555.006 182.574 559.376 194.388 568.121 203.996 C 576.862 213.604 588.172 218.412 602.055 218.412 C 609.663 218.412 616.67 216.707 623.076 213.307 C 629.484 209.902 634.187 206.297 637.191 202.496 L 637.191 211.306 C 637.191 217.71 636.855 222.266 636.19 224.968 C 635.522 227.67 634.037 230.525 631.735 233.525 C 629.433 236.533 625.946 239.083 621.275 241.184 C 616.603 243.285 611.53 244.336 606.059 244.336 C 596.182 244.336 587.04 241.069 578.631 234.527 L 566.218 248.342 C 577.43 256.951 590.175 261.258 604.458 261.258 C 613.931 261.258 622.507 259.588 630.183 256.25 C 637.857 252.912 643.614 248.791 647.452 243.887 C 651.288 238.982 653.708 234.179 654.709 229.471 C 655.711 224.768 656.211 217.543 656.211 207.797 L 656.211 135.625 L 673.628 135.625 L 673.628 118.711 L 637.191 118.711 Z " fill="rgb(66,61,55)"/><path d=" M 556.204 90.778 C 583.398 82.581 612.091 97.988 620.288 125.178 C 622.499 132.518 623.381 140.08 622.39 147.209 C 622.353 147.598 622.365 148.01 622.4 148.426 C 621.16 149.191 620 150.074 618.905 151.04 C 618.667 148.552 618.619 146.102 618.66 143.734 C 618.81 135.183 596.138 100.022 558.821 99.027 C 583.057 103.352 598.51 116.543 605.397 123.812 C 612.744 131.556 622.165 151.033 606.785 155.666 C 590.662 160.529 581.672 145.424 573.258 133.828 C 560.315 116.002 545.297 96.125 529.859 109.222 C 536.214 100.705 545.252 94.082 556.204 90.778 Z " fill-rule="evenodd" fill="rgb(135,193,69)"/></g></g><clipPath id="_clipPath_Fekg0pOOtpFNAKUzwv2FKPfFGv04uGqZ"><path d=" M -144 -351 L 1056 -351 L 1056 649 L -144 649 L -144 -351 Z " fill="rgb(255,255,255)"/></clipPath><g clip-path="url(#_clipPath_Fekg0pOOtpFNAKUzwv2FKPfFGv04uGqZ)"><g><path d=" M 181.9 26.225 C 203.093 32.533 221.506 43.704 236.301 58.149 C 230.24 46.064 227.235 39.945 231.704 29.287 C 221.041 22.578 209.3 17.187 196.635 13.416 C 125.323 -7.809 50.486 29.846 24.265 98.159 C 50.968 38.993 117.956 7.19 181.9 26.225 Z " fill-rule="evenodd" fill="rgb(66,61,55)"/><path d=" M 275.483 139.594 C 277.118 156.115 275.638 173.224 270.609 190.118 C 249.851 259.872 176.468 299.59 106.714 278.828 C 94.443 275.176 83.103 269.886 72.855 263.282 C 85.546 272.547 100.002 279.844 115.922 284.587 C 190.803 306.87 269.575 264.236 291.864 189.355 C 297.735 169.618 299.096 149.614 296.549 130.442 C 289.487 133.449 282.465 136.5 275.483 139.594 Z " fill-rule="evenodd" fill="rgb(66,61,55)"/><path d=" M 257.451 85.104 C 279.135 74.296 296.491 63.704 318.811 61.498 C 297.093 66.134 276.75 76.588 256.711 88.328 L 256.892 88.333 C 205.164 114.73 180.209 138.218 152.912 188.011 C 133.845 156.552 84.47 120.485 49.237 109.314 C 87.581 138.152 131.836 201.567 149.229 249.024 C 183.076 179.457 202.967 136.676 264.143 90.083 C 283.488 75.35 316.648 127.202 366.08 54.206 C 310.853 40.82 311.07 12.262 257.451 85.104 Z " fill-rule="evenodd" fill="rgb(135,193,69)"/><path d=" M 252.48 82.03 C 255.18 67.49 257.043 53.047 255.125 39.038 C 258.626 52.882 256.035 65.569 254.251 80.891 C 286.286 33.029 269.228 39.335 249.272 9.153 C 223.888 44.029 236.543 40.772 252.48 82.03 Z " fill-rule="evenodd" fill="rgb(135,193,69)"/><path d=" M 148.77 67.076 C 142.306 73.464 133.595 83.544 126.436 97.743 C 118.103 114.272 115.397 129.389 114.436 139.076 C 121.716 142.459 127.743 146.178 132.707 149.795 C 133.005 150.013 133.249 150.193 133.397 150.302 C 139.591 154.892 144.647 159.668 148.77 164.194 C 151.98 160.318 156.155 155.909 161.457 151.545 C 168.339 145.88 175.017 142.024 180.436 139.409 C 180.523 131.147 179.612 116.82 172.77 100.743 C 165.51 83.689 155 72.709 148.77 67.076 Z " fill-rule="evenodd" fill="rgb(135,193,69)"/></g></g></g></g></g></svg>
